envergo/static/images/todo-light.svg

<svg width="48" height="48" viewBox="0 0 48 48" fill="none" xmlns="http://www.w3.org/2000/svg">
<path d="M33.596 7.72998C33.5613 7.43158 33.3077 7.19995 33 7.19995H10.2L10.13 7.20399C9.83163 7.23865 9.60001 7.49225 9.60001 7.79995V40.2L9.60404 40.2699C9.6387 40.5683 9.8923 40.8 10.2 40.8H29.4L29.47 40.7959C29.7684 40.7613 30 40.5077 30 40.2L29.996 40.13C29.9613 39.8316 29.7077 39.6 29.4 39.6H10.8V8.39995H32.4V19.8L32.404 19.8699C32.4387 20.1683 32.6923 20.4 33 20.4C33.3314 20.4 33.6 20.1313 33.6 19.8V7.79995L33.596 7.72998Z" fill="#000091"/>
<path d="M24 11.4C24 11.0686 23.7314 10.8 23.4 10.8H16.8L16.73 10.804C16.4316 10.8386 16.2 11.0922 16.2 11.4C16.2 11.7313 16.4686 12 16.8 12H23.4L23.47 11.9959C23.7684 11.9613 24 11.7077 24 11.4Z" fill="#000091"/>
<path d="M29.4 14.4C29.7314 14.4 30 14.6686 30 15C30 15.3077 29.7684 15.5613 29.47 15.5959L29.4 15.6H16.8C16.4686 15.6 16.2 15.3313 16.2 15C16.2 14.6923 16.4316 14.4386 16.73 14.404L16.8 14.4H29.4Z" fill="#000091"/>
<path d="M26.4 18.6C26.4 18.2686 26.1314 18 25.8 18H16.8L16.73 18.004C16.4316 18.0386 16.2 18.2922 16.2 18.6C16.2 18.9313 16.4686 19.2 16.8 19.2H25.8L25.87 19.1959C26.1684 19.1613 26.4 18.9077 26.4 18.6Z" fill="#000091"/>
<path d="M29.4 21.6C29.7314 21.6 30 21.8686 30 22.2C30 22.5077 29.7684 22.7613 29.47 22.7959L29.4 22.8H16.8C16.4686 22.8 16.2 22.5313 16.2 22.2C16.2 21.8922 16.4316 21.6386 16.73 21.604L16.8 21.6H29.4Z" fill="#000091"/>
<path d="M35.996 12.53C35.9613 12.2316 35.7077 12 35.4 12C35.0686 12 34.8 12.2686 34.8 12.6V17.4L34.804 17.4699C34.8387 17.7683 35.0923 18 35.4 18C35.7314 18 36 17.7313 36 17.4V12.6L35.996 12.53Z" fill="#000091"/>
<path d="M30.6 42C30.9314 42 31.2 42.2686 31.2 42.6C31.2 42.9077 30.9684 43.1613 30.67 43.1959L30.6 43.2H15C14.6686 43.2 14.4 42.9313 14.4 42.6C14.4 42.2923 14.6316 42.0386 14.93 42.004L15 42H30.6Z" fill="#000091"/>
<path d="M26.4 25.8C26.4 25.4686 26.1314 25.2 25.8 25.2H16.8L16.73 25.204C16.4316 25.2386 16.2 25.4923 16.2 25.8C16.2 26.1313 16.4686 26.4 16.8 26.4H25.8L25.87 26.3959C26.1684 26.3613 26.4 26.1077 26.4 25.8Z" fill="#000091"/>
<path d="M36.3521 21.5459C36.8507 21.1079 37.6104 21.1579 38.0475 21.6572L39.7516 23.6045C39.9697 23.8538 39.9442 24.2329 39.6949 24.4512C39.4456 24.6693 39.0665 24.6448 38.8482 24.3955L37.1441 22.4473L28.149 30.3525L30.148 32.6016C30.3682 32.8492 30.3459 33.2281 30.0982 33.4482C29.8506 33.6683 29.4717 33.6461 29.2516 33.3984L27.566 31.502L27.2818 32.4492L29.6422 35.0723L31.2398 34.832L36.4244 30.3623L34.3951 27.9902C34.1799 27.7385 34.2099 27.3599 34.4615 27.1445C34.7133 26.9292 35.0918 26.9583 35.3072 27.21L37.3336 29.5791L39.8082 27.4453C40.0592 27.2291 40.4385 27.2569 40.6549 27.5078C40.8712 27.7588 40.8424 28.1381 40.5914 28.3545L32.023 35.7412C31.8515 35.8891 31.6416 35.9859 31.4176 36.0195L26.525 36.7529C25.6549 36.8834 24.9442 36.0644 25.1969 35.2217L26.6764 30.292C26.741 30.0769 26.8641 29.8836 27.0328 29.7354L36.3521 21.5459ZM26.3463 35.5664L28.2193 35.2852L26.8775 33.7949L26.3463 35.5664ZM15.318 24.918L13.4996 26.7363L12.2818 25.5186L12.9185 24.8818L13.4996 25.4639L14.6822 24.2822L15.318 24.918ZM15.318 21.3184L13.4996 23.1367L12.2818 21.918L12.9185 21.2822L13.4996 21.8633L14.6822 20.6816L15.318 21.3184ZM15.318 17.7178L13.4996 19.5361L12.2818 18.3184L12.9185 17.6816L13.4996 18.2637L14.6822 17.082L15.318 17.7178ZM15.318 14.1182L13.4996 15.9365L12.2818 14.7178L12.9185 14.082L13.4996 14.6641L14.6822 13.4814L15.318 14.1182ZM15.318 10.5186L13.4996 12.3369L12.2818 11.1182L12.9185 10.4814L13.4996 11.0635L14.6822 9.88184L15.318 10.5186Z" fill="#E1000F"/>
</svg>

<svg width="48" height="48" fill="none" xmlns="http://www.w3.org/2000/svg"><path d="M33.596 7.73A.6.6 0 0 0 33 7.2H10.2l-.07.004a.6.6 0 0 0-.53.596v32.4l.004.07a.6.6 0 0 0 .596.53h19.2l.07-.004A.6.6 0 0 0 30 40.2l-.004-.07a.6.6 0 0 0-.596-.53H10.8V8.4h21.6v11.4l.004.07a.6.6 0 0 0 1.196-.07v-12l-.004-.07Z" fill="#000091"/><path d="M24 11.4a.6.6 0 0 0-.6-.6h-6.6l-.07.004A.6.6 0 0 0 16.8 12h6.6l.07-.004A.6.6 0 0 0 24 11.4Zm5.4 3a.6.6 0 0 1 .07 1.196l-.07.004H16.8a.6.6 0 0 1-.07-1.196l.07-.004h12.6Zm-3 4.2a.6.6 0 0 0-.6-.6h-9l-.07.004a.6.6 0 0 0 .07 1.196h9l.07-.004a.6.6 0 0 0 .53-.596Zm3 3a.6.6 0 0 1 .07 1.196l-.07.004H16.8a.6.6 0 0 1-.07-1.196l.07-.004h12.6Zm6.596-9.07a.6.6 0 0 0-1.196.07v4.8l.004.07A.6.6 0 0 0 36 17.4v-4.8l-.004-.07ZM30.6 42a.6.6 0 0 1 .07 1.196l-.07.004H15a.6.6 0 0 1-.07-1.196L15 42h15.6Zm-4.2-16.2a.6.6 0 0 0-.6-.6h-9l-.07.004a.6.6 0 0 0 .07 1.196h9l.07-.004a.6.6 0 0 0 .53-.596Z" fill="#000091"/><path fill-rule="evenodd" clip-rule="evenodd" d="M15.318 10.518 13.5 12.336l-1.218-1.218.636-.636.582.582 1.182-1.182.636.636ZM13.5 15.936l1.818-1.818-.636-.636-1.182 1.182-.582-.582-.636.636 1.218 1.218Zm1.818 1.782L13.5 19.536l-1.218-1.218.636-.636.582.582 1.182-1.182.636.636ZM13.5 23.136l1.818-1.818-.636-.636-1.182 1.182-.582-.582-.636.636 1.218 1.218Zm0 3.6 1.818-1.818-.636-.636-1.182 1.182-.582-.582-.636.636 1.218 1.218Zm22.852-5.19a1.2 1.2 0 0 1 1.695.111l1.704 1.948a.6.6 0 1 1-.903.79l-1.704-1.947-8.995 7.904 2 2.25a.6.6 0 1 1-.898.797l-1.685-1.897-.284.947 2.36 2.623 1.597-.24 5.186-4.47-2.03-2.372a.6.6 0 0 1 .912-.78l2.026 2.369 2.475-2.133a.6.6 0 1 1 .784.909l-8.569 7.386a1.2 1.2 0 0 1-.606.278l-4.893.734a1.2 1.2 0 0 1-1.327-1.532l1.479-4.929a1.2 1.2 0 0 1 .357-.556l9.32-8.19Zm-10.006 14.02.532-1.771 1.341 1.49-1.873.281Z" fill="#E1000F"/></svg>
